build/img/sprite.svg

<svg xmlns="http://www.w3.org/2000/svg" xmlns:xlink="http://www.w3.org/1999/xlink"><symbol id="icon-close" viewBox="0 0 20 20"><g fill="none"><path d="M.293 18.291a1 1 0 101.414 1.414L10 11.413l8.292 8.292a1 1 0 101.414-1.414l-8.292-8.292 8.292-8.292A1 1 0 1018.291.293L9.999 8.585 1.707.293A1 1 0 10.293 1.707L8.585 10 .293 18.291z"/></g></symbol><symbol id="ok" viewBox="0 0 25 25"><g fill="none">
<path d="M12.5 0C5.59692 0 0 5.59692 0 12.5C0 19.4031 5.59692 25 12.5 25C19.4031 25 25 19.4031 25 12.5C25 5.59692 19.4031 0 12.5 0Z" fill="white"/>
<path d="M12.6804 6.88882C13.5788 6.88882 14.3096 7.64312 14.3096 8.57064C14.3096 9.49536 13.5788 10.2497 12.6804 10.2497C11.7819 10.2497 11.0512 9.49536 11.0512 8.57064C11.0512 7.64312 11.7819 6.88882 12.6804 6.88882ZM12.6804 12.6299C14.8508 12.6299 16.6153 10.8084 16.6153 8.57064C16.6153 6.33008 14.8508 4.50858 12.6804 4.50858C10.5099 4.50858 8.74809 6.33008 8.74809 8.57064C8.74809 10.8084 10.5099 12.6299 12.6804 12.6299ZM14.2717 15.9432C15.0727 15.7533 15.844 15.4264 16.5558 14.9654C17.0943 14.6162 17.2567 13.8815 16.9184 13.3255C16.5774 12.7668 15.8684 12.5992 15.3271 12.9512C13.7169 13.996 11.6438 13.996 10.0309 12.9512C9.49232 12.5992 8.78057 12.7668 8.44228 13.3255C8.10399 13.8815 8.26637 14.6162 8.80492 14.9654C9.51668 15.4264 10.288 15.7533 11.089 15.9432L8.88882 18.2117C8.43957 18.6755 8.43957 19.4298 8.88882 19.8936C9.11615 20.1254 9.40843 20.2428 9.70342 20.2428C9.9984 20.2428 10.2934 20.1254 10.5207 19.8936L12.6804 17.6642L14.8427 19.8936C15.2919 20.3601 16.0199 20.3601 16.4719 19.8936C16.9211 19.4298 16.9211 18.6755 16.4719 18.2117L14.2717 15.9432Z" fill="#030A1A"/>
</g></symbol><symbol id="reddit" viewBox="0 0 25 25"><g fill="none">
<path d="M12.5 0C5.59692 0 0 5.59692 0 12.5C0 19.4031 5.59692 25 12.5 25C19.4031 25 25 19.4031 25 12.5C25 5.59692 19.4031 0 12.5 0Z" fill="white"/>
<path d="M13.8509 5.55566C13.4055 5.55566 12.9876 5.7816 12.7195 6.10741C12.4514 6.43323 12.3037 6.8304 12.196 7.24897C12.0251 7.92201 11.9723 8.66877 11.9596 9.34181C10.7079 9.42505 9.57444 9.79606 8.63303 10.3692C8.25098 10.0481 7.79083 9.86978 7.34968 9.87454C6.84731 9.87929 6.37028 10.0957 6.01566 10.5404C5.3381 11.3895 5.4162 12.7784 6.20141 13.6036C6.15286 13.8581 6.11698 14.1197 6.11698 14.3837C6.11698 17.1805 8.97498 19.4446 12.5 19.4446C16.025 19.4446 18.883 17.1781 18.883 14.3837C18.883 14.1197 18.8471 13.8581 18.7986 13.6036C19.5838 12.7784 19.6619 11.3895 18.9843 10.5404C18.6297 10.0957 18.1527 9.87929 17.6503 9.87454C17.2091 9.86978 16.749 10.0481 16.3669 10.3692C15.4298 9.79843 14.3026 9.42743 13.0572 9.34181C13.0741 8.72109 13.1184 8.07659 13.243 7.59143C13.3211 7.28702 13.414 7.06584 13.5132 6.94455C13.6124 6.82326 13.6841 6.77332 13.8509 6.77332C14.2118 6.77332 14.2583 6.88985 14.4757 7.17286C14.5854 7.31556 14.7121 7.49393 14.9147 7.66754C15.1174 7.84115 15.4171 7.99098 15.7421 7.99098V6.77332C15.6514 6.77332 15.6345 6.77094 15.5733 6.71624C15.5121 6.66154 15.4276 6.5355 15.3031 6.37378C15.054 6.04796 14.5707 5.55566 13.8509 5.55566ZM17.3632 5.66982C16.5231 5.66982 15.8435 6.43561 15.8435 7.38215C15.8435 8.32869 16.5231 9.09448 17.3632 9.09448C18.2033 9.09448 18.883 8.32869 18.883 7.38215C18.883 6.43561 18.2033 5.66982 17.3632 5.66982ZM17.3632 6.27865C17.9036 6.27865 18.3426 6.77332 18.3426 7.38215C18.3426 7.99098 17.9036 8.48565 17.3632 8.48565C16.8229 8.48565 16.3838 7.99098 16.3838 7.38215C16.3838 6.77332 16.8229 6.27865 17.3632 6.27865ZM12.5 10.2931C15.491 10.2931 18.0218 12.1695 18.0218 14.3837C18.0218 16.6002 15.491 18.4742 12.5 18.4742C9.50901 18.4742 6.97818 16.6002 6.97818 14.3837C6.97818 12.1695 9.50901 10.2931 12.5 10.2931ZM7.36656 10.8449C7.51643 10.8472 7.67263 10.8853 7.82249 10.959C7.28002 11.4228 6.84942 11.9555 6.55602 12.5572C6.35339 12.0863 6.40827 11.4989 6.65734 11.1873C6.83887 10.959 7.09005 10.8425 7.36656 10.8449ZM17.6334 10.8449C17.9099 10.8425 18.1611 10.959 18.3426 11.1873C18.5917 11.4989 18.6466 12.0863 18.4439 12.5572C18.1506 11.9555 17.72 11.4228 17.1775 10.959C17.3273 10.8853 17.4835 10.8472 17.6334 10.8449ZM10.3385 12.3669C9.79819 12.3669 9.35914 12.8616 9.35914 13.4704C9.35914 14.0793 9.79819 14.5739 10.3385 14.5739C10.8789 14.5739 11.3179 14.0793 11.3179 13.4704C11.3179 12.8616 10.8789 12.3669 10.3385 12.3669ZM14.6614 12.3669C14.1211 12.3669 13.682 12.8616 13.682 13.4704C13.682 14.0793 14.1211 14.5739 14.6614 14.5739C15.2018 14.5739 15.6408 14.0793 15.6408 13.4704C15.6408 12.8616 15.2018 12.3669 14.6614 12.3669ZM9.81507 16.115C10.1591 16.9165 11.223 17.6942 12.5 17.6942C13.777 17.6942 14.8577 16.9165 15.2018 16.115C14.577 16.5693 13.5913 16.8761 12.5 16.8761C11.4087 16.8761 10.4399 16.5693 9.81507 16.115Z" fill="#030A1A"/>
</g></symbol><symbol id="vk" viewBox="0 0 25 25"><g fill="none">
<path d="M12.5 0C5.59692 0 0 5.59692 0 12.5C0 19.4031 5.59692 25 12.5 25C19.4031 25 25 19.4031 25 12.5C25 5.59692 19.4031 0 12.5 0Z" fill="white"/>
<path d="M13.7227 15.0518C14.1654 14.9087 14.7322 15.9964 15.3355 16.4127C15.7884 16.728 16.1352 16.6599 16.1352 16.6599L17.7434 16.6368C17.7434 16.6368 18.5838 16.5849 18.1865 15.9172C18.1536 15.8616 17.9536 15.4222 16.9895 14.5179C15.9815 13.5718 16.1181 13.7251 17.3317 12.0896C18.0712 11.0927 18.3671 10.4838 18.2745 10.2244C18.1856 9.97486 17.6424 10.0397 17.6424 10.0397L15.8305 10.0522C15.6541 10.0527 15.5045 10.1073 15.4365 10.2907C15.4351 10.2925 15.1489 11.0621 14.7674 11.7164C13.9612 13.1005 13.6394 13.1741 13.506 13.0875C13.1999 12.887 13.2773 12.2832 13.2773 11.8539C13.2773 10.5125 13.4773 9.9531 12.8855 9.80863C12.6878 9.76047 12.5433 9.72898 12.0391 9.72435C11.3945 9.71463 10.8472 9.72435 10.5369 9.8767C10.3309 9.97996 10.173 10.2064 10.2688 10.2194C10.3892 10.2356 10.6592 10.2934 10.8036 10.4907C10.9893 10.7463 10.9838 11.3191 10.9838 11.3191C10.9838 11.3191 11.0898 12.8986 10.7337 13.0944C10.4892 13.2287 10.1549 12.9546 9.43578 11.6979C9.06858 11.0552 8.79121 10.3448 8.79121 10.3448C8.79121 10.3448 8.7375 10.2129 8.64026 10.1406C8.52449 10.055 8.36243 10.0277 8.36243 10.0277L6.64265 10.0388C6.64265 10.0388 6.38427 10.0462 6.28935 10.1601C6.20507 10.261 6.2824 10.4694 6.2824 10.4694C6.2824 10.4694 7.62942 13.6557 9.15471 15.2606C10.5531 16.734 12.1423 16.6363 12.1423 16.6363H12.8624C12.8624 16.6363 13.0795 16.6113 13.1907 16.4918C13.2944 16.3807 13.2898 16.1719 13.2898 16.1719C13.2898 16.1719 13.2754 15.1953 13.7227 15.0518Z" fill="#030A1A"/>
</g></symbol></svg>

<svg xmlns="http://www.w3.org/2000/svg">

  <symbol id="vk" viewBox="0 0 25 25">
    <path fill="#fff" d="M12.5 0C5.597 0 0 5.597 0 12.5S5.597 25 12.5 25 25 19.403 25 12.5 19.403 0 12.5 0Z"/>
    <path d="M13.723 15.052c.442-.143 1.01.944 1.612 1.36.453.316.8.248.8.248l1.608-.023s.84-.052.444-.72c-.033-.055-.233-.495-1.198-1.4-1.008-.945-.87-.792.343-2.427.74-.997 1.035-1.606.942-1.866-.088-.25-.632-.184-.632-.184l-1.811.012c-.177 0-.326.055-.394.239-.002.002-.288.771-.67 1.425-.806 1.385-1.128 1.458-1.261 1.372-.306-.201-.229-.805-.229-1.234 0-1.341.2-1.9-.391-2.045-.198-.049-.343-.08-.847-.085-.644-.01-1.192 0-1.502.153-.206.103-.364.33-.268.342.12.017.39.074.535.272.185.255.18.828.18.828s.106 1.58-.25 1.775c-.245.135-.58-.14-1.298-1.396-.367-.643-.645-1.353-.645-1.353s-.053-.132-.15-.204c-.117-.086-.279-.113-.279-.113l-1.72.01s-.258.008-.353.122c-.084.101-.007.31-.007.31s1.347 3.186 2.873 4.79c1.398 1.474 2.987 1.376 2.987 1.376h.72s.217-.025.329-.144c.103-.111.099-.32.099-.32s-.015-.977.433-1.12Z"/>
  </symbol>

  <symbol id="ok" viewBox="0 0 25 25">
    <path fill="#fff" d="M12.5 0C5.597 0 0 5.597 0 12.5S5.597 25 12.5 25 25 19.403 25 12.5 19.403 0 12.5 0Z"/>
    <path d="M12.68 6.889c.899 0 1.63.754 1.63 1.682 0 .924-.731 1.679-1.63 1.679-.898 0-1.629-.755-1.629-1.68 0-.927.73-1.681 1.63-1.681Zm0 5.74c2.17 0 3.935-1.82 3.935-4.058 0-2.24-1.764-4.062-3.935-4.062-2.17 0-3.932 1.821-3.932 4.062 0 2.237 1.762 4.059 3.932 4.059Zm1.592 3.314a7.29 7.29 0 0 0 2.284-.978c.538-.349.7-1.083.362-1.64a1.13 1.13 0 0 0-1.59-.374 4.866 4.866 0 0 1-5.297 0 1.127 1.127 0 0 0-1.589.374 1.213 1.213 0 0 0 .363 1.64 7.29 7.29 0 0 0 2.284.978l-2.2 2.269a1.218 1.218 0 0 0 0 1.682c.227.231.52.349.814.349.295 0 .59-.118.818-.35l2.16-2.229 2.162 2.23c.449.466 1.177.466 1.629 0 .45-.464.45-1.218 0-1.682l-2.2-2.269Z"/>
  </symbol>

  <symbol id="reddit" viewBox="0 0 25 25">
    <path fill="#fff" d="M12.5 0C5.597 0 0 5.597 0 12.5S5.597 25 12.5 25 25 19.403 25 12.5 19.403 0 12.5 0Z"/>
    <path d="M13.85 5.556c-.444 0-.862.226-1.13.551-.269.326-.416.723-.524 1.142-.17.673-.224 1.42-.236 2.093a7.317 7.317 0 0 0-3.327 1.027c-.382-.32-.842-.5-1.283-.494-.503.004-.98.22-1.334.665-.678.85-.6 2.238.185 3.064a4.173 4.173 0 0 0-.084.78c0 2.796 2.858 5.06 6.383 5.06s6.383-2.266 6.383-5.06c0-.264-.036-.526-.084-.78.785-.826.863-2.214.185-3.064a1.697 1.697 0 0 0-1.334-.665c-.44-.005-.901.173-1.283.494a7.313 7.313 0 0 0-3.31-1.027c.017-.62.061-1.265.186-1.75.078-.305.171-.526.27-.647.1-.122.171-.172.338-.172.36 0 .407.117.625.4.11.143.236.32.439.495.202.173.502.323.827.323V6.773c-.09 0-.108-.002-.169-.057-.06-.054-.145-.18-.27-.342-.249-.326-.732-.818-1.452-.818Zm3.513.114c-.84 0-1.52.766-1.52 1.712 0 .947.68 1.712 1.52 1.712s1.52-.765 1.52-1.712c0-.946-.68-1.712-1.52-1.712Zm0 .609c.54 0 .98.494.98 1.103s-.44 1.104-.98 1.104-.98-.495-.98-1.104c0-.609.44-1.103.98-1.103ZM12.5 10.293c2.991 0 5.522 1.877 5.522 4.09 0 2.217-2.531 4.091-5.522 4.091s-5.522-1.874-5.522-4.09c0-2.215 2.531-4.09 5.522-4.09Zm-5.133.552c.15.002.306.04.455.114a4.986 4.986 0 0 0-1.266 1.598c-.203-.47-.148-1.058.101-1.37a.877.877 0 0 1 .71-.342Zm10.266 0a.877.877 0 0 1 .71.342c.249.312.304.9.1 1.37a4.984 4.984 0 0 0-1.266-1.598c.15-.074.306-.112.456-.114Zm-7.294 1.522c-.54 0-.98.495-.98 1.103 0 .61.44 1.104.98 1.104s.979-.495.979-1.104c0-.608-.44-1.103-.98-1.103Zm4.322 0c-.54 0-.979.495-.979 1.103 0 .61.44 1.104.98 1.104s.979-.495.979-1.104c0-.608-.44-1.103-.98-1.103Zm-4.846 3.748c.344.802 1.408 1.58 2.685 1.58 1.277 0 2.358-.779 2.702-1.58-.625.454-1.61.761-2.702.761-1.091 0-2.06-.307-2.685-.761Z"/>
  </symbol>
</svg
